!!!!SEGMENT: pl-gd--ee-1638--007-008_marenzio-luca--il-terzo-libro-de-madrigalia-a-sei-voci-qual-per-ombrose.krn
!!!cenid: 15xx:849
!!!COM: Marenzio, Luca
!!!COM-rismID:
!!!CDT: ~1553-1599/08/22
!!!CNT: Italian
!!!GTL: Il Terzo Libro de madrigalia a sei voci
!!!OTL: Qual per ombrose
!!!OMV: 008
!!!PDT: 1585
!!!AGN:
!!!SMS-siglum: PL-GD
!!!SMS-shelfmark: Ee 1638
!!!SMS-variant:
!!!SMS-altvar:
!!!SMS-shelfwork: 007-008 G
!!!NIFC-rismSourceID: 990039250
!!!NIFC-islandoraID: pl-gd:57883
!!!URL-pdf-islandora: https://repozytorium.nifc.pl/islandora/object/pl-gd%3A57883/datastream/PDF/view
!!!URL-scan: https://polish.musicsources.pl/pl/lokalizacje/galeria/klocki-introligatorskie/655 @EN{Scan on Polish Music Herritage in Open Access Website} @PL{Skany w portalu Dziedzictwo Muzyki Polskiej w otwartym dostępie}
!!!ONB-nifc: UWAGA: zbiór na stronach: Canto: s. 694-704, Alto: s. 542-552, Tenore: s. 390-400, Basso: s. 237-248, Quinto: s. 85-96, Sesto: s. 3-14. Uwaga: utwory podzielone wg tytułów w spisach treści dostępnych na końcu każdej księgi głosowej.
!!!AIN: 1 alto 1 bass 1 quinto 1 sesto 1 soprn 1 tenor
!!!key:
**kern	**text	**kern	**text	**kern	**text	**kern	**text	**kern	**text	**kern	**text
*part6	*part6	*part5	*part5	*part4	*part4	*part3	*part3	*part2	*part2	*part1	*part1
*staff6	*staff6	*staff5	*staff5	*staff4	*staff4	*staff3	*staff3	*staff2	*staff2	*staff1	*staff1
*I"BASSO	*	*I"TENORE	*	*I"SESTO	*	*I"ALTO	*	*I"QUINTO	*	*I"CANTO	*
*I'B	*	*I'T	*	*I'V	*	*I'A	*	*I'V	*	*I'C	*
*Ibass	*	*Itenor	*	*Isesto	*	*Ialto	*	*Iquinto	*	*Isoprn	*
*ICvox	*	*ICvox	*	*ICvox	*	*ICvox	*	*ICvox	*	*ICvox	*
*IG	*	*	*	*	*	*	*	*	*	*	*
*clefF3	*	*clefC3	*	*clefC3	*	*clefC2	*	*clefG2	*	*clefG2	*
*k[]	*	*k[]	*	*k[]	*	*k[]	*	*k[]	*	*k[]	*
*C:	*	*C:	*	*C:	*	*C:	*	*C:	*	*C:	*
*M4/4	*	*M4/4	*	*M4/4	*	*M4/4	*	*M4/4	*	*M4/4	*
*met(C)	*	*met(C)	*	*met(C)	*	*met(C)	*	*met(C)	*	*met(C)	*
=1-	=1-	=1-	=1-	=1-	=1-	=1-	=1-	=1-	=1-	=1-	=1-
!	!	!	!	!LO:TX:b:t=QVal per ombroſe	!	!	!	!	!	!LO:TX:a:t=poszczególne głosy znajdują się na stronach&colon;\nC-698\nQ-90\nA-546\nS-8\nT-394\nB-242	!
!LO:TX:a:t=Prima parte.	!	!LO:TX:a:t=Prima parte.	!	!LO:TX:a:t=Prima parte.	!	!LO:TX:a:t=Prima parte.	!	!LO:TX:a:t=Prima parte.	!	!LO:TX:a:t=Prima parte.	!
1r	.	1ryy	.	1ryy	.	1r	.	1r	.	2cc\	QVal
.	.	.	.	.	.	.	.	.	.	4cc\	per
.	.	.	.	.	.	.	.	.	.	4dd\	om-
=2-	=2-	=2-	=2-	=2-	=2-	=2-	=2-	=2-	=2-	=2-	=2-
1r	.	1ryy	.	1ryy	.	2c/	QVal	1r	.	4.ee\	-bros'
.	.	.	.	.	.	.	.	.	.	8dd\	et
.	.	.	.	.	.	4c/	per	.	.	4ee\	ver-
.	.	.	.	.	.	4d/	om-	.	.	4ff#X\	-de-
=3-	=3-	=3-	=3-	=3-	=3-	=3-	=3-	=3-	=3-	=3-	=3-
2c\	QVal	1ryy	.	1ryy	.	4.e/	-bros'	2g/	QVal	4.gg\	-gian-
.	.	.	.	.	.	8d/	et	.	.	8ffny\	-te
4c\	per	.	.	.	.	4e/	ver-	4g/	per	4ee\	val-
4A\	om-	.	.	.	.	4f#X\	-de-	4a/	om-	4cc\	-li
=4-	=4-	=4-	=4-	=4-	=4-	=4-	=4-	=4-	=4-	=4-	=4-
4.G\	-bros'	1ryy	.	1ryy	.	2g\	-gian-	4.b/	-broſe	4r	.
.	.	.	.	.	.	.	.	.	.	4dd\	et
8A\	et	.	.	.	.	.	.	8a/	et	.	.
4G\	ver-	.	.	.	.	2g\	te	4b/	ver-	4dd\	ver-
!	!	!	!	!	!	!	!	!	!	!LO:SIC:v:t=custos ff	!
4E/	-de-	.	.	.	.	.	.	4cc#X\	-de-	4ee\	-de-
!	!	!	!	!	!	!	!	!	!	!LO:LB:g=original	!
=5-	=5-	=5-	=5-	=5-	=5-	=5-	=5-	=5-	=5-	=5-	=5-
2D/	-gian-	1ryy	.	1ryy	.	4a\	et	8dd\	-gian	8ff\	-gian-
.	.	.	.	.	.	.	.	8ccny\	.	8ee\	.
.	.	.	.	.	.	2b\	ver-	8b\	.	8dd\	.
.	.	.	.	.	.	.	.	8a/	.	8cc\	.
2E/	ti	.	.	.	.	.	.	4g/	.	4b/	.
.	.	.	.	.	.	4cc\	-di-	4gg\	te	4ee\	-te
=6-	=6-	=6-	=6-	=6-	=6-	=6-	=6-	=6-	=6-	=6-	=6-
2F/	val-	1ryy	.	1ryy	.	4a\	-gian-	4.ff\	val-	4dd\	val-
!	!	!	!	!	!	!LO:SIC:v:t=custos d	!	!	!	!	!
.	.	.	.	.	.	4a\	ti	.	.	2cc\	.
!	!	!	!	!	!	!LO:LB:g=original	!	!	!	!	!
.	.	.	.	.	.	.	.	8ee\	.	.	.
!	!	!	!	!	!	!	!	!LO:SIC:v:t=custos ee	!	!	!
2G\	.	.	.	.	.	2d/	val-	2dd\	.	.	.
!	!	!	!	!	!	!	!	!LO:LB:g=original	!	!	!
.	.	.	.	.	.	.	.	.	.	4b/	.
=7-	=7-	=7-	=7-	=7-	=7-	=7-	=7-	=7-	=7-	=7-	=7-
!LO:SIC:v:t=custos E	!	!	!	!	!	!	!	!	!	!	!
1C	-li	1ryy	.	1ryy	.	1g	-li	1ee	-li	1cc	-li
!LO:LB:g=original	!	!	!	!	!	!	!	!	!	!	!
=8-	=8-	=8-	=8-	=8-	=8-	=8-	=8-	=8-	=8-	=8-	=8-
*M3/2	*	*M3/2	*	*M3/2	*	*M3/2	*	*M3/2	*	*M3/2	*
*met(O3) 	*	*met(O3) 	*	*met(O3) 	*	*met(O3) 	*	*met(O3) 	*	*met(O3) 	*
1.r	.	2c/	Al	2g\	Al	1.r	.	2cc\	Al	2ee\	Al
.	.	2G/	piu	2g\	piu	.	.	2b/	piu	2dd\	piu
.	.	2c/	bel	2g\	bel	.	.	2cc\	bel	2ee\	bel
=9-	=9-	=9-	=9-	=9-	=9-	=9-	=9-	=9-	=9-	=9-	=9-
1.r	.	2F/	tem-	2a\	tem-	1.r	.	2cc\	tem-	2ff\	tem-
.	.	4G/	-p'u-	4g\	-p'u-	.	.	4b/	-p'u-	4ee\	-p'u-
.	.	2A/	-dir	2e\	-dir	.	.	2ee\	-dir	2cc\	-dir
.	.	4B/	can-	4g\	can-	.	.	4dd\	can-	4dd\	can-
=10-	=10-	=10-	=10-	=10-	=10-	=10-	=10-	=10-	=10-	=10-	=10-
1.r	.	2.c/	-tar	2.g\	-tar	1.r	.	2.cc\	-tar	2.ee\	-tar
.	.	4e\	gl'a-	4g\	gl'a-	.	.	4g/	gl'a-	4b/	gl'a-
!	!	!LO:SIC:v:t=custos G	!	!LO:SIC:v:t=custos g	!	!	!	!	!	!LO:SIC:v:t=custos dd	!
.	.	2d\	-ugel-	2f#X\	-ugel-	.	.	2a/	-ugel-	2dd\	-ugel-
!	!	!LO:LB:g=original	!	!LO:LB:g=original	!	!	!	!	!	!LO:LB:g=original	!
=11-	=11-	=11-	=11-	=11-	=11-	=11-	=11-	=11-	=11-	=11-	=11-
*M4/4	*	*M4/4	*	*M4/4	*	*M4/4	*	*M4/4	*	*M4/4	*
*met(C)	*	*met(C)	*	*met(C)	*	*met(C)	*	*met(C)	*	*met(C)	*
2r	.	1G	-li	2g\	-li	2r	.	1b	-li	1dd	-li
1G\	Qual	.	.	1d\	Qual	1g\	Qual	.	.	.	.
=12-	=12-	=12-	=12-	=12-	=12-	=12-	=12-	=12-	=12-	=12-	=12-
.	.	2B/	Qual	.	.	.	.	1r	.	1r	.
4.E/	dol-	4.B/	dol-	4.e\	dol-	4.g#X\	dol-	.	.	.	.
8E/	-ce	8B/	-ce	8e\	-ce	8g#\	-ce	.	.	.	.
=13-	=13-	=13-	=13-	=13-	=13-	=13-	=13-	=13-	=13-	=13-	=13-
4E/	mor-	4B/	mor-	4e\	mor-	4g#y\	mor-	1r	.	2r	.
4D/	-mo-	4d\	-mo-	4f#X\	-mo-	4a\	-mo-	.	.	.	.
2D/	-rar	2d\	-rar	2f#\	-rar	2a\	-rar	.	.	4r	.
.	.	.	.	.	.	.	.	.	.	4dd\	per
=14-	=14-	=14-	=14-	=14-	=14-	=14-	=14-	=14-	=14-	=14-	=14-
2G\	per	2B/	per	1r	.	2r	.	4r	.	8dd\	ri-
.	.	.	.	.	.	.	.	.	.	8cc\	.
.	.	.	.	.	.	.	.	4gg\	per	8b\	.
.	.	.	.	.	.	.	.	.	.	8a/	.
4E/	ri-	4B/	ri-	.	.	4r	.	8gg\	ri-	4g/	.
.	.	.	.	.	.	.	.	8ff\	.	.	.
4C/	-vi	4c/	-vi	.	.	4cc\	per	8ee\	.	4g/	-vi
!	!	!	!	!	!	!	!	!LO:SIC:v:t=custos cc	!	!	!
.	.	.	.	.	.	.	.	8dd\	.	.	.
!	!	!	!	!	!	!	!	!LO:LB:g=original	!	!	!
=15-	=15-	=15-	=15-	=15-	=15-	=15-	=15-	=15-	=15-	=15-	=15-
2F/	ſnel-	2c/	ſnel-	4r	.	8cc\	ri-	4cc\	.	1a	ſnel-
.	.	.	.	.	.	8b\	.	.	.	.	.
.	.	.	.	4a\	per	8a\	.	4cc\	ni	.	.
.	.	.	.	.	.	8gny\	.	.	.	.	.
4D/	-li	2d\	-li	8a\	ri-	4fny\	.	4r	.	.	.
.	.	.	.	8g\	.	.	.	.	.	.	.
!	!	!	!	!	!	!LO:SIC:v:t=custos g	!	!	!	!	!
4d\	per	.	.	8fny\	.	4a\	-vi	4dd\	per	.	.
!	!	!	!	!	!	!LO:LB:g=original	!	!	!	!	!
.	.	.	.	8e\	.	.	.	.	.	.	.
=16-	=16-	=16-	=16-	=16-	=16-	=16-	=16-	=16-	=16-	=16-	=16-
4B\	ri-	1r	.	4d\	.	2.g\	ſnel-	8dd\	ri-	4b/	-li
.	.	.	.	.	.	.	.	8cc\	.	.	.
4G\	-vi	.	.	4d\	vi	.	.	8b\	.	4gg\	per
.	.	.	.	.	.	.	.	8a/	.	.	.
!LO:SIC:v:t=custos A	!	!	!	!	!	!	!	!	!	!	!
2c\	ſnel-	.	.	1e\	ſnel-	.	.	2g/	.	8gg\	ri-
!LO:LB:g=original	!	!	!	!	!	!	!	!	!	!	!
.	.	.	.	.	.	.	.	.	.	8ff\	.
.	.	.	.	.	.	4c/	li	.	.	8ee\	.
.	.	.	.	.	.	.	.	.	.	8dd\	.
=17-	=17-	=17-	=17-	=17-	=17-	=17-	=17-	=17-	=17-	=17-	=17-
2A\	-li	2r	.	.	.	2r	.	2a/	vi	4cc\	.
.	.	.	.	.	.	.	.	.	.	4a/	-vi
1G\	Di	1d\	Di	2B/	-li	1g\	Di	2b/	fnel-	2dd\	ſnel-
=18-	=18-	=18-	=18-	=18-	=18-	=18-	=18-	=18-	=18-	=18-	=18-
.	.	.	.	1r	.	.	.	4g/	-li	4b/	-li
!	!	!	!	!	!	!	!	!	!	!LO:SIC:v:t=custos dd	!
.	.	.	.	.	.	.	.	4b/	Di	4dd\	Di
!	!	!	!	!	!	!	!	!	!	!LO:LB:g=original	!
4.G\	chia-	4.d\	chia-	.	.	4.g\	chia-	4.b/	chia-	4.dd\	chia-
8G\	-ri	8d\	-ri	.	.	8g\	-ri	8b/	-ri	8dd\	-ri
=19-	=19-	=19-	=19-	=19-	=19-	=19-	=19-	=19-	=19-	=19-	=19-
4G\	fre-	4B/	fre-	4r	.	4g\	fre-	4b/	fre-	4dd\	fre-
!	!	!LO:SIC:v:t=custos c	!	!LO:SIC:v:t=custos A	!	!	!	!	!	!	!
4C/	-ſch'et	4e\	-ſch'et	4c/	-et	4g\	-ſch'et	4cc\	-ſch'et	4ee\	-ſch'et
!	!	!LO:LB:g=original	!	!LO:LB:g=original	!	!	!	!	!	!	!
4.F/	li-	4.c/	lim-	4.A/	li-	4.a\	li-	4.cc\	li-	4.ff\	li-
8D/	-qui-	8F/	-pi-	8A/	-qui-	8a\	-qui-	8dd\	-qui-	8ff\	-qui-
=20-	=20-	=20-	=20-	=20-	=20-	=20-	=20-	=20-	=20-	=20-	=20-
4F/	-di	4c/	-di	4A/	-di	4a\	-di	4cc\	-di	4ff\	-di
4G\	cri-	4G/	cri-	4d\	cri-	4g\	cri-	4b/	cri-	4dd\	cri-
!	!	!	!	!	!	!	!	!LO:SIC:v:t=custos b	!	!	!
2D/	ſtal-	2A/	-ſtal-	2d\	ſtal-	2f#X\	-ſtal-	2a/	ſtal-	2dd\	-ſtal-
!	!	!	!	!	!	!	!	!LO:LB:g=original	!	!	!
=21-	=21-	=21-	=21-	=21-	=21-	=21-	=21-	=21-	=21-	=21-	=21-
1G	-li	1G	-li	4d\	-li	2g\	-li	1b	-li	1dd	-li
.	.	.	.	4g\	Qual	.	.	.	.	.	.
.	.	.	.	4g\	ver-	2r	.	.	.	.	.
.	.	.	.	4f\	de	.	.	.	.	.	.
=22-	=22-	=22-	=22-	=22-	=22-	=22-	=22-	=22-	=22-	=22-	=22-
2C/	Qual	4r	.	4.e\	prat'	1r	.	2cc\	Qual	1r	.
.	.	4g\	Qual	.	.	.	.	.	.	.	.
.	.	.	.	8f\	in	.	.	.	.	.	.
4C/	ver-	4.g\	ver-	4e\	fior	.	.	4cc\	ver-	.	.
4BB/	de	.	.	4d\	ver-	.	.	4dd\	de	.	.
.	.	8f\	-de	.	.	.	.	.	.	.	.
=23-	=23-	=23-	=23-	=23-	=23-	=23-	=23-	=23-	=23-	=23-	=23-
2C/	pra-	4.e\	prat'	2g\	-mi-	1r	.	4.ee\	prat'	2dd\	Qual
.	.	8f\	in	.	.	.	.	8dd\	in	.	.
2C/	-to	4e\	fior	2c/	-gli	.	.	4ee\	fior	4cc\	ver-
.	.	4a\	ver-	.	.	.	.	4ff\	ver-	4dd\	-de
=24-	=24-	=24-	=24-	=24-	=24-	=24-	=24-	=24-	=24-	=24-	=24-
1r	.	2g\	-mi-	1r	.	2c/	Qual	2gg\	-mi-	4.ee\	prat'
.	.	.	.	.	.	.	.	.	.	8dd\	in
.	.	2g\	gli	.	.	4c/	ver-	2gg\	-gli	4ee\	fior
.	.	.	.	.	.	4d/	-de	.	.	4ff\	ver-
=25-	=25-	=25-	=25-	=25-	=25-	=25-	=25-	=25-	=25-	=25-	=25-
!LO:SIC:v:t=custos c	!	!	!	!	!	!	!	!	!	!	!
2c\	Qual	1r	.	1r	.	4.e/	prat'	2g/	Qual	4.gg\	-mi-
!LO:LB:g=original	!	!	!	!	!	!LO:SIC:v:t=custos e	!	!	!	!LO:SIC:v:t=custos ee	!
.	.	.	.	.	.	8d/	in	.	.	8ff\	-gli e
!	!	!	!	!	!	!LO:LB:g=original	!	!	!	!LO:LB:g=original	!
4c\	ver-	.	.	.	.	4e/	fior	4g/	ver-	4ee\	gial-
4A\	-de	.	.	.	.	4f#X\	ver-	4a/	-de	4cc\	-li
=26-	=26-	=26-	=26-	=26-	=26-	=26-	=26-	=26-	=26-	=26-	=26-
4.G\	prat'	1r	.	1r	.	2g\	-mi-	4.b/	prat'	4r	.
.	.	.	.	.	.	.	.	.	.	4dd\	in
8A\	in	.	.	.	.	.	.	8a/	in	.	.
4G\	fior	.	.	.	.	2g\	gli-	4b/	fior	4dd\	fior
4E/	ver-	.	.	.	.	.	.	4cc#X\	ver-	4ee\	ver-
=27-	=27-	=27-	=27-	=27-	=27-	=27-	=27-	=27-	=27-	=27-	=27-
2D/	-mig	1r	.	1r	.	4a\	in	8dd\	-mi-	8ff\	-mi-
.	.	.	.	.	.	.	.	8ccny\	.	8ee\	.
.	.	.	.	.	.	2b\	fior	8b\	.	8dd\	.
!	!	!	!	!	!	!	!	!LO:SIC:v:t=custos g	!	!	!
.	.	.	.	.	.	.	.	8a/	.	8cc\	.
!	!	!	!	!	!	!	!	!LO:LB:g=original	!	!	!
2E/	i e	.	.	.	.	.	.	4g/	.	4b/	.
.	.	.	.	.	.	4cc\	ver-	4gg\	-gie	4ee\	-gli
=28-	=28-	=28-	=28-	=28-	=28-	=28-	=28-	=28-	=28-	=28-	=28-
2F/	gial-	1r	.	1r	.	4a\	-mi-	4.ff\	gial-	4dd\	e
.	.	.	.	.	.	4a\	gli e	.	.	2cc\	gial-
.	.	.	.	.	.	.	.	8ee\	.	.	.
2G\	.	.	.	.	.	2d/	gial-	2dd\	.	.	.
.	.	.	.	.	.	.	.	.	.	4b/	.
=29-	=29-	=29-	=29-	=29-	=29-	=29-	=29-	=29-	=29-	=29-	=29-
1C	-li	1r	.	1r	.	1a	-li	1ee	-li	1cc	-li
=30-	=30-	=30-	=30-	=30-	=30-	=30-	=30-	=30-	=30-	=30-	=30-
*M3/2	*	*M3/2	*	*M3/2	*	*M3/2	*	*M3/2	*	*M3/2	*
*met(O3) 	*	*met(O3) 	*	*met(O3) 	*	*met(O3) 	*	*met(O3) 	*	*met(O3) 	*
1.r	.	2c/	Diſ-	2g\	Diſ-	1.r	.	2cc\	Diſ-	2ee\	Diſ-
.	.	2G/	-tin-	2g\	-tin-	.	.	2b\	-tin-	2dd\	-tin-
!	!	!LO:SIC:v:t=custos F	!	!LO:SIC:v:t=custos a	!	!	!	!	!	!	!
.	.	2c/	-t'al'-	2g\	-t'a-	.	.	2cc\	-t'al'-	2ee\	-t'all'-
!	!	!LO:LB:g=original	!	!LO:LB:g=original	!	!	!	!	!	!	!
=31-	=31-	=31-	=31-	=31-	=31-	=31-	=31-	=31-	=31-	=31-	=31-
!	!	!	!	!	!	!	!	!	!	!LO:SIC:v:t=custos ee	!
1.r	.	2F/	-om-	2a\	-l'om-	1.r	.	2cc\	-om-	2ff\	-om-
!	!	!	!	!	!	!	!	!	!	!LO:LB:g=original	!
.	.	4G/	-bra	4g\	-bra	.	.	4b\	-bra	4ee\	-bra
.	.	2A/	di	2e\	di	.	.	2ee\	di	2cc\	di
.	.	4B/	ver-	4g\	ver-	.	.	4dd\	ver-	4dd\	ver-
=32-	=32-	=32-	=32-	=32-	=32-	=32-	=32-	=32-	=32-	=32-	=32-
1.r	.	2.c/	-d'ar-	2.g\	-d'ar-	1.r	.	2.cc\	-d'ar-	2.ee\	-d'ar-
.	.	4e\	-buſ-	4g\	-buſ-	.	.	4g/	-buſ-	4b/	-buſ-
.	.	2d\	-cel-	2f#X\	-cel-	.	.	2a/	-cel-	2dd\	-cel-
=33-	=33-	=33-	=33-	=33-	=33-	=33-	=33-	=33-	=33-	=33-	=33-
*M4/4	*	*M4/4	*	*M4/4	*	*M4/4	*	*M4/4	*	*M4/4	*
*met(C)	*	*met(C)	*	*met(C)	*	*met(C)	*	*met(C)	*	*met(C)	*
2r	.	1G	-li	2g\	-li	2r	.	1b	-li	1dd	-li
1G\	O	.	.	1d\	O	1g\	O	.	.	.	.
=34-	=34-	=34-	=34-	=34-	=34-	=34-	=34-	=34-	=34-	=34-	=34-
.	.	2B/	O	.	.	.	.	1r	.	1r	.
4.E/	mo-	4.B/	mo-	4.e\	mo-	4.g#X\	mo-	.	.	.	.
8E/	-ver	8B/	-ver	8e\	-ver	8g#\	-ver	.	.	.	.
=35-	=35-	=35-	=35-	=35-	=35-	=35-	=35-	=35-	=35-	=35-	=35-
!	!	!	!	!	!	!LO:SIC:v:t=custos a	!	!	!	!	!
4E/	Nin-	4B/	Nin-	4e\	Nin-	4g#y\	Nin-	1r	.	2r	.
!	!	!	!	!	!	!LO:LB:g=original	!	!	!	!	!
2D/	-fa	2d\	-fa	2f#X\	-fa	2a\	-fa	.	.	.	.
.	.	.	.	.	.	.	.	.	.	4r	.
!LO:SIC:v:t=custos G	!	!	!	!	!	!	!	!	!	!	!
4D/	atti	4d\	atti	4f#\	atti	4a\	atti	.	.	4dd\	leg-
!LO:LB:g=original	!	!	!	!	!	!	!	!	!	!	!
=36-	=36-	=36-	=36-	=36-	=36-	=36-	=36-	=36-	=36-	=36-	=36-
!	!	!	!	!	!	!	!	!LO:SIC:v:t=custos gg	!	!	!
2G\	leg-	2B/	leg-	1r	.	2r	.	4r	.	8dd\	-gia-
!	!	!	!	!	!	!	!	!LO:LB:g=original	!	!	!
.	.	.	.	.	.	.	.	.	.	8cc\	.
.	.	.	.	.	.	.	.	4gg\	leg-	8b\	.
.	.	.	.	.	.	.	.	.	.	8a/	.
4E/	-gia-	4B/	-gia-	.	.	4r	.	8gg\	-gia-	4g/	.
.	.	.	.	.	.	.	.	8ff\	.	.	.
4C/	dri e	4c/	dri e	.	.	4cc\	leg-	8ee\	.	4g/	-dr' e
.	.	.	.	.	.	.	.	8dd\	.	.	.
=37-	=37-	=37-	=37-	=37-	=37-	=37-	=37-	=37-	=37-	=37-	=37-
!	!	!LO:SIC:v:t=custos d	!	!	!	!	!	!	!	!	!
2F/	bel-	2c/	bel-	4r	.	8cc\	-gia-	4cc\	.	1a	ſnel-
!	!	!LO:LB:g=original	!	!	!	!	!	!	!	!	!
.	.	.	.	.	.	8b\	.	.	.	.	.
.	.	.	.	4a\	leg-	8a\	.	4cc\	dri	.	.
.	.	.	.	.	.	8gny\	.	.	.	.	.
4D/	-li	2d\	-li	8a\	-gia.-	4fny\	.	4r	.	.	.
.	.	.	.	8g\	.	.	.	.	.	.	.
4d\	leg-	.	.	8fny\	.	4a\	-dri e	4dd\	leg-	.	.
!	!	!	!	!LO:SIC:v:t=custos d	!	!	!	!	!	!	!
.	.	.	.	8e\	.	.	.	.	.	.	.
!	!	!	!	!LO:LB:g=original	!	!	!	!	!	!	!
=38-	=38-	=38-	=38-	=38-	=38-	=38-	=38-	=38-	=38-	=38-	=38-
4B\	-gia-	1r	.	4d\	dri	2.g\	bel-	8dd\	-gia-	4b/	-le
.	.	.	.	.	.	.	.	8cc\	.	.	.
4G\	-dri e	.	.	4d\	et	.	.	8b\	.	4gg\	leg-
.	.	.	.	.	.	.	.	8a/	.	.	.
2c\	bel-	.	.	1e\	bel-	.	.	2g/	.	8gg\	-gia-
.	.	.	.	.	.	.	.	.	.	8ff\	.
.	.	.	.	.	.	4c/	-li	.	.	8ee\	.
!	!	!	!	!	!	!	!	!	!	!LO:SIC:v:t=custos cc	!
.	.	.	.	.	.	.	.	.	.	8dd\	.
!	!	!	!	!	!	!	!	!	!	!LO:LB:g=original	!
=39-	=39-	=39-	=39-	=39-	=39-	=39-	=39-	=39-	=39-	=39-	=39-
2A\	-li	2r	.	.	.	2r	.	2a/	-dri e	4cc\	.
.	.	.	.	.	.	.	.	.	.	4a/	-dri e
1G\	Al	1d\	Al	2B/	li	1g\	Al	2b/	bel-	2dd\	ſnel-
=40-	=40-	=40-	=40-	=40-	=40-	=40-	=40-	=40-	=40-	=40-	=40-
.	.	.	.	1r	.	.	.	4g/	li	4b/	-li
.	.	.	.	.	.	.	.	4b/	Al-	4dd\	Al
4.G\	dol-	4.d\	dol-	.	.	4.g\	dol-	4.b/	-dol-	4.dd\	dol-
8G\	-ce	8d\	-ce	.	.	8g\	-ce	8b/	-ce	8dd\	-ce
=41-	=41-	=41-	=41-	=41-	=41-	=41-	=41-	=41-	=41-	=41-	=41-
4G\	ſuon	4B/	ſuon	4r	.	4g\	ſuon	4b/	ſuon	4dd\	ſuon
!	!	!	!	!	!	!	!	!LO:SIC:v:t=custos cc	!	!	!
4C/	de	4e\	de	4c/	de	4g\	de	4cc\	de	4ee\	de
!	!	!	!	!	!	!	!	!LO:LB:g=original	!	!	!
4.F/	gl'a-	4.c/	gl'a-	4.A/	gl'a	4.a\	gl'a-	4.cc\	gl'a	4.ff\	gl'a-
8D/	-mo-	8F/	-mo-	8A/	mo-	8a\	-mo-	8dd\	mo-	8ff\	-mo-
=42-	=42-	=42-	=42-	=42-	=42-	=42-	=42-	=42-	=42-	=42-	=42-
4F/	-ro-	4c/	-ro-	4A/	-ro-	4a\	-ro-	4cc\	-ro-	4ff\	-ro-
!LO:SIC:v:t=custos D	!	!	!	!	!	!LO:SIC:v:t=custos f#	!	!	!	!	!
4G\	-ſi	4G/	-ſi	4d\	-ſi	4g\	-ſi	4b/	-ſi	4dd\	-ſi
!LO:LB:g=original	!	!	!	!	!	!LO:LB:g=original	!	!	!	!	!
2D/	bal-	2A/	bal-	2d\	bal-	2f#X\	bal-	2a/	bal-	2dd\	bal-
=43-	=43-	=43-	=43-	=43-	=43-	=43-	=43-	=43-	=43-	=43-	=43-
1G	-li	1G	-li	1d	-li	1g	-li	1b	-li	1dd	-li
=44-	=44-	=44-	=44-	=44-	=44-	=44-	=44-	=44-	=44-	=44-	=44-
*M3/2	*	*M3/2	*	*M3/2	*	*M3/2	*	*M3/2	*	*M3/2	*
*met(3)	*	*met(3)	*	*met(3)	*	*met(3)	*	*met(3)	*	*met(3) 	*
2G\	Al	2d\	Al	2G/	Al	2g\	Al	2dd\	Al	2b/	Al
2.G\	dol-	2.d\	dol-	2.B/	dol-	2.g\	dol-	2.dd\	dol-	2.b/	dol-
4G\	-ce	4d\	-ce	4B/	-ce	4g\	-ce	4dd\	-ce	4b/	-ce
=45-	=45-	=45-	=45-	=45-	=45-	=45-	=45-	=45-	=45-	=45-	=45-
2G\	ſuon	2B/	ſuon	2d\	ſuon	2g\	ſuon	2dd\	ſuon	2b/	ſuon
!	!	!	!	!	!	!	!	!	!	!LO:SIC:v:t=custos cc	!
2C/	de	2e\	de	2c/	de	2g\	de	2ee\	de	2cc\	de
!	!	!	!	!	!	!	!	!	!	!LO:LB:g=original	!
2.F/	gl'a-	2.c\	gl'a-	2.A/	gl'a-	2.a\	gl'a-	2.ff\	gl'a-	2.cc\	gl'a-
=46-	=46-	=46-	=46-	=46-	=46-	=46-	=46-	=46-	=46-	=46-	=46-
.	.	.	.	.	.	.	.	.	.	.	.
!	!	!	!	!LO:SIC:v:t=custos A	!	!	!	!	!	!	!
4D/	-mo-	4F/	-mo-	4A/	-mo-	4a\	-mo-	4ff\	-mo-	4dd\	-mo-
!	!	!LO:LB:g=original	!	!LO:LB:g=original	!	!	!	!	!	!	!
2F/	-ro-	2c/	-ro-	2A/	-ro-	2a\	-ro-	2ff\	-ro-	2cc\	-ro-
2G\	-ſi	2G/	-ſi	2d\	-ſi	2g\	-ſi	2ee\	-ſi	2b/	-ſi
=47-	=47-	=47-	=47-	=47-	=47-	=47-	=47-	=47-	=47-	=47-	=47-
1.D	bal-	1.A	bal-	1.d	bal-	2.f#X\	bal-	1.dd	bal-	2.a/	bal-
.	.	.	.	.	.	4e/	.	.	.	4g/	.
.	.	.	.	.	.	2f#X\	.	.	.	2a/	.
=48-	=48-	=48-	=48-	=48-	=48-	=48-	=48-	=48-	=48-	=48-	=48-
00G	-li.	00G	-li.	00d	-li.	00g	-li.	00dd	-li.	00b	-li.
!LO:LB:g=original	!	!LO:LB:g=original	!	!LO:LB:g=original	!	!LO:LB:g=original	!	!LO:LB:g=original	!	!LO:LB:g=original	!
=49-	=49-	=49-	=49-	=49-	=49-	=49-	=49-	=49-	=49-	=49-	=49-
.	.	.	.	.	.	.	.	.	.	.	.
=50-	=50-	=50-	=50-	=50-	=50-	=50-	=50-	=50-	=50-	=50-	=50-
.	.	.	.	.	.	.	.	.	.	.	.
2r	.	2r	.	2r	.	2r	.	2r	.	2r	.
=51||-	=51||-	=51||-	=51||-	=51||-	=51||-	=51||-	=51||-	=51||-	=51||-	=51||-	=51||-
*M4/4	*	*M4/4	*	*M4/4	*	*M4/4	*	*M4/4	*	*M4/4	*
*met(C)	*	*met(C)	*	*met(C)	*	*met(C)	*	*met(C)	*	*met(C)	*
!	!	!	!	!	!	!	!	!LO:TX:a:t=Seconda parte&colon;	!	!	!
!LO:TX:a:t=Seconda parte&colon;	!	!LO:TX:a:t=Seconda parte&colon;	!	!LO:TX:a:t=Seconda parte.	!	!	!	!LO:TX:b:t=PVot'aguagliar	!	!LO:TX:a:t=Seconda parte&colon;	!
1r	.	1r	.	1r	.	2r	.	1r	.	2dd\	PUot'-
!	!	!	!	!	!	!LO:TX:a:t=Seconda parte&colon;	!	!	!	!	!
.	.	.	.	.	.	2g\	PUot'-	.	.	4dd\	-ag-
.	.	.	.	.	.	.	.	.	.	4dd\	-uag-
=52-	=52-	=52-	=52-	=52-	=52-	=52-	=52-	=52-	=52-	=52-	=52-
2G\	PUot'-	1r	.	2B/	PUot'-	4g\	-ag-	4r	.	2dd\	-liar
.	.	.	.	.	.	4g\	-uag-	4.gg\	l'a-	.	.
4G\	-ag-	.	.	4B/	-ag-	2g\	-liar	.	.	4r	.
.	.	.	.	.	.	.	.	8ff\	-lto	.	.
4G\	-uag-	.	.	4B/	-uag-	.	.	4ee\	pia-	4.gg\	l'a-
=53-	=53-	=53-	=53-	=53-	=53-	=53-	=53-	=53-	=53-	=53-	=53-
1G	-liar	2g\	PUot'-	1B	-liar	2b#X\	puot'-	4dd\	-cer	.	.
.	.	.	.	.	.	.	.	.	.	8ff\	-lto
.	.	.	.	.	.	.	.	4.gg\	l'a-	4ee\	pia-
.	.	4g\	-ag-	.	.	4b#\	-ag-	.	.	4dd\	-cer
.	.	.	.	.	.	.	.	8ff\	-lto	.	.
*	*	*	*	*	*	*	*	*	*	*	*ij
.	.	4g\	-uag-	.	.	4b#\	-uag-	4ee\	pia-	4.gg\	l'a-
=54-	=54-	=54-	=54-	=54-	=54-	=54-	=54-	=54-	=54-	=54-	=54-
4.G\	l'a-	2g\	-liar	4.B/	l'a-	4bny\	-liar	4dd\	-cer	.	.
.	.	.	.	.	.	.	.	.	.	8ff\	-lto
.	.	.	.	.	.	4.g\	l'al-	4gg\	Puo-	4ee\	pia-
8A\	-lto	.	.	8c/	-lto	.	.	.	.	.	.
4B\	pia-	4r	.	4d\	pia-	.	.	4gg\	-t'a	4dd\	-cer
*	*	*	*	*	*	*	*	*	*	*	*Xij
.	.	.	.	.	.	8fny\	-to	.	.	.	.
4c\	-cer	4.g\	l'a-	4c/	-cer	4e/	pia-	4gg\	guag-	4r	.
=55-	=55-	=55-	=55-	=55-	=55-	=55-	=55-	=55-	=55-	=55-	=55-
!	!	!	!	!	!	!	!	!LO:SIC:v:t=custos gg	!	!	!
4.G\	l'a-	.	.	4.B/	l'a-	4d/	-cer	2gg\	-liar	4r	.
!	!	!	!	!	!	!	!	!LO:LB:g=original	!	!	!
.	.	8f\	-lto	.	.	.	.	.	.	.	.
!	!	!	!	!	!	!	!	!	!	!LO:SIC:v:t=custos gg	!
.	.	4e\	pia-	.	.	4.g\	l'al-	.	.	4gg\	Puo-
!	!	!	!	!	!	!	!	!	!	!LO:LB:g=original	!
8A\	-lto	.	.	8c/	-lto	.	.	.	.	.	.
4B\	pia-	4d\	-cer	4d\	pia-	.	.	2r	.	4gg\	-t'a
!	!	!	!	!	!	!LO:SIC:v:t=custos e	!	!	!	!	!
.	.	.	.	.	.	8f\	-to	.	.	.	.
!	!	!	!	!	!	!LO:LB:g=original	!	!	!	!	!
!LO:SIC:v:t=custos G	!	!	!	!	!	!	!	!	!	!	!
*	*	*	*ij	*	*	*	*	*	*	*	*
4c\	-cer	4.g\	l'a-	4c/	-cer	4e/	pia-	.	.	4gg\	guag-
!LO:LB:g=original	!	!	!	!	!	!	!	!	!	!	!
=56-	=56-	=56-	=56-	=56-	=56-	=56-	=56-	=56-	=56-	=56-	=56-
2G\	Puo-	.	.	2B/	Puo-	4d/	-cer	4r	.	2gg\	-liar
.	.	8f\	-lto	.	.	.	.	.	.	.	.
.	.	4e\	pia-	.	.	4g\	Puo-	4.gg\	l'al-	.	.
4G\	-t'a	4d\	-cer	4B/	-t'a	4g\	-t'a	.	.	2r	.
*	*	*	*Xij	*	*	*	*	*	*	*	*
.	.	.	.	.	.	.	.	8ff\	-to	.	.
!	!	!	!	!LO:SIC:v:t=custos B	!	!	!	!	!	!	!
4G\	guag-	4r	.	4B/	gua-	4g\	guag-	4ee\	pia-	.	.
!	!	!	!	!LO:LB:g=original	!	!	!	!	!	!	!
=57-	=57-	=57-	=57-	=57-	=57-	=57-	=57-	=57-	=57-	=57-	=57-
1G	-liar	2d\	Puo-	1B	-gliar	1g	-liar	2dd\	-cer	4r	.
.	.	.	.	.	.	.	.	.	.	4.dd\	l'al-
.	.	4d\	-t'a	.	.	.	.	4r	.	.	.
.	.	.	.	.	.	.	.	.	.	8cc\	-to
!	!	!LO:SIC:v:t=custos d	!	!	!	!	!	!	!	!	!
.	.	4d\	guag-	.	.	.	.	4.dd\	l'al-	4b/	pia-
!	!	!LO:LB:g=original	!	!	!	!	!	!	!	!	!
=58-	=58-	=58-	=58-	=58-	=58-	=58-	=58-	=58-	=58-	=58-	=58-
4.D/	l'al-	1d	-liar	2r	.	4.f#X\	l'al-	.	.	4a/	-cer
.	.	.	.	.	.	.	.	8cc\	-to	.	.
.	.	.	.	.	.	.	.	4b/	pia-	4.dd\	l'al-
8E/	-to	.	.	.	.	8g\	-to	.	.	.	.
4F#X/	pia-	.	.	4.d\	l'al-	4a\	pia-	4a/	-cer	.	.
.	.	.	.	.	.	.	.	.	.	8cc\	-to
2G\	-cer	.	.	.	.	2d/	-cer	4dd\	ch'io	4b\	pia-
.	.	.	.	8c/	-to	.	.	.	.	.	.
=59-	=59-	=59-	=59-	=59-	=59-	=59-	=59-	=59-	=59-	=59-	=59-
.	.	1r	.	4B/	pia-	.	.	2g/	pro-	4dd\	-cer
4E/	ch'io	.	.	4.c/	-cer	4c/	ch'io	.	.	4ee\	ch'io
2D/	pro-	.	.	.	.	2d/	pro-	2dd\	-vo	2ff\	pro-
.	.	.	.	8B/	ch'io	.	.	.	.	.	.
.	.	.	.	4B/	pro-	.	.	.	.	.	.
=60-	=60-	=60-	=60-	=60-	=60-	=60-	=60-	=60-	=60-	=60-	=60-
1C	-vo	1r	.	2c/	-vo	1g	-vo	1r	.	1ee	-vo
.	.	.	.	1g\	Qua-	.	.	.	.	.	.
=61-	=61-	=61-	=61-	=61-	=61-	=61-	=61-	=61-	=61-	=61-	=61-
1r	.	1c	Quan-	.	.	2r	.	1cc	Quan-	2r	.
.	.	.	.	2c/	-to	2e/	Quan-	.	.	2g/	Quan-
=62-	=62-	=62-	=62-	=62-	=62-	=62-	=62-	=62-	=62-	=62-	=62-
1r	.	2A/	-do	1r	.	2e/	-do	2cc#X\	-do	2a/	-do
.	.	2G/	ſu'l	.	.	2g\	ſu'l	2dd\	ſu'l	2b/	ſu'l
=63-	=63-	=63-	=63-	=63-	=63-	=63-	=63-	=63-	=63-	=63-	=63-
!	!	!	!	!	!	!	!	!	!	!LO:SIC:v:t=custos a	!
1r	.	1c	di	1r	.	1g	di	1ee	di	1cc	di
!	!	!	!	!	!	!	!	!	!	!LO:LB:g=original	!
=64-	=64-	=64-	=64-	=64-	=64-	=64-	=64-	=64-	=64-	=64-	=64-
1r	.	4F/	la-	1r	.	4fny\	la-	4ccny\	la-	4a/	la-
!	!	!	!	!	!	!LO:SIC:v:t=custos g	!	!	!	!	!
.	.	2f\	-ca-	.	.	2a\	-ca-	2ff\	-ca-	2cc\	-ca-
!	!	!	!	!	!	!LO:LB:g=original	!	!	!	!	!
.	.	4c/	-ra	.	.	4g\	-ra	4ee\	-ra	4cc\	-ra
=65-	=65-	=65-	=65-	=65-	=65-	=65-	=65-	=65-	=65-	=65-	=65-
1r	.	4d\	Don-	1r	.	4f#X\	Don-	4dd\	Don-	4a/	Don-
!	!	!	!	!	!	!	!	!LO:SIC:v:t=custos dd	!	!	!
.	.	4e\	-na	.	.	4g\	-na	4cc#X\	-na	4g/	-na
!	!	!	!	!	!	!	!	!LO:LB:g=original	!	!	!
.	.	1d\	mi-	.	.	1f#X\	mi-	1dd\	mi-	1a/	mi-
=66-	=66-	=66-	=66-	=66-	=66-	=66-	=66-	=66-	=66-	=66-	=66-
1r	.	.	.	1r	.	.	.	.	.	.	.
.	.	4d\	a	.	.	4f#y\	a	4dd\	a	4a/	a
.	.	4B/	Mi	.	.	4g\	Mi	4dd\	Mi	4b/	Mi
=67-	=67-	=67-	=67-	=67-	=67-	=67-	=67-	=67-	=67-	=67-	=67-
1r	.	4.c/	s'ap-	1r	.	4.g\	s'ap-	4.ccny\	s'ap-	4.ee\	s'ap-
.	.	8c/	-pre-	.	.	8g\	-pre-	8cc\	-pre-	8ee\	-pre-
.	.	4c/	-ſen-	.	.	4g\	-ſen-	4cc\	-ſen-	4ee\	-ſen-
.	.	4G/	-ta in	.	.	4g\	-ta in	4b/	-ta in	4dd\	-ta in
=68-	=68-	=68-	=68-	=68-	=68-	=68-	=68-	=68-	=68-	=68-	=68-
1r	.	2.A/	ſi	1r	.	2.e/	ſi	2.a/	ſi	2.cc#X\	ſi
!	!	!LO:SIC:v:t=custos A	!	!	!	!	!	!	!	!	!
.	.	4A/	ſo-	.	.	4e/	ſo-	4a/	ſo-	4cc#\	ſo-
!	!	!LO:LB:g=original	!	!	!	!	!	!	!	!	!
=69-	=69-	=69-	=69-	=69-	=69-	=69-	=69-	=69-	=69-	=69-	=69-
1r	.	2A/	-avi	1r	.	2e/	-avi	2.a/	.	2ccny\	-avi
.	.	2d\	tem-	.	.	2fny\	tem-	.	.	2dd\	tem-
.	.	.	.	.	.	.	.	4b/	.	.	.
=70-	=70-	=70-	=70-	=70-	=70-	=70-	=70-	=70-	=70-	=70-	=70-
1r	.	1c	.	1r	.	1g	-pre	1cc	te'	1ee	-pre
=71-	=71-	=71-	=71-	=71-	=71-	=71-	=71-	=71-	=71-	=71-	=71-
2r	.	2.c/	.	2r	.	1g	Fal-	1cc	pre	1ee	Fal-
1c\	Fall-	.	.	1g\	Fall-	.	.	.	.	.	.
.	.	4d\	.	.	.	.	.	.	.	.	.
=72-	=72-	=72-	=72-	=72-	=72-	=72-	=72-	=72-	=72-	=72-	=72-
.	.	1e	pre	.	.	1c	-la-	2r	.	1cc	-la-
1A\	-la-	.	.	1c\	-la-	.	.	1cc\	Fal-	.	.
=73-	=73-	=73-	=73-	=73-	=73-	=73-	=73-	=73-	=73-	=73-	=73-
.	.	2r	.	.	.	1e	.	.	.	2a/	-ce
!	!	!	!	!	!	!	!	!	!	!LO:SIC:v:t=custos cc#	!
2G#X\	-ce	2e\	Fal-	2B/	-ce	.	.	1ee\	-la-	2b/	ſo-
!	!	!	!	!	!	!	!	!	!	!LO:LB:g=original	!
=74-	=74-	=74-	=74-	=74-	=74-	=74-	=74-	=74-	=74-	=74-	=74-
0A	ſo-	2e\	-la-	2r	.	1a	ce	.	.	2cc#X\	.
.	.	2d\	-ce	2.a\	ſo-	.	.	2ff\	-ce	2.dd\	.
=75-	=75-	=75-	=75-	=75-	=75-	=75-	=75-	=75-	=75-	=75-	=75-
.	.	1e	ſo-	.	.	1a	ſo-	2ee\	ſo-	.	.
.	.	.	.	8g\	.	.	.	.	.	8cc#X\	.
.	.	.	.	8f\	.	.	.	.	.	8b\	.
.	.	.	.	2e\	.	.	.	2a/	gno	2cc#X\	.
=76-	=76-	=76-	=76-	=76-	=76-	=76-	=76-	=76-	=76-	=76-	=76-
!	!	!	!	!LO:SIC:v:t=custos g	!	!LO:SIC:v:t=custos a	!	!	!	!	!
2D/	-gno	1f#X	-gno	1d	gno	2a\	-gno	2r	.	1dd	-gno
!	!	!	!	!LO:LB:g=original	!	!LO:LB:g=original	!	!	!	!	!
4r	.	.	.	.	.	4r	.	2a/	a	.	.
2d\	a	.	.	.	.	2a\	a	.	.	.	.
=77-	=77-	=77-	=77-	=77-	=77-	=77-	=77-	=77-	=77-	=77-	=77-
.	.	1r	.	4r	.	.	.	2dd\	che	1ryy	.
!LO:SIC:v:t=custos c	!	!	!	!	!	!	!	!	!	!	!
4B\	che	.	.	2g\	a	4d/	che	.	.	.	.
!LO:LB:g=original	!	!	!	!	!	!	!	!LO:SIC:v:t=custos a	!	!	!
2c\	ſta-	.	.	.	.	4g\	ſta-	2ee\	ſta-	.	.
!	!	!	!	!	!	!	!	!LO:LB:g=original	!	!	!
.	.	.	.	4e\	che	2a\	-bil	.	.	.	.
=78-	=78-	=78-	=78-	=78-	=78-	=78-	=78-	=78-	=78-	=78-	=78-
4Fny/	bil	1r	.	2f\	ſta-	.	.	4a/	bil	1ryy	.
4Gny\	non	.	.	.	.	8g\	.	4b/	non	.	.
.	.	.	.	.	.	8f\	.	.	.	.	.
2A\	tro-	.	.	4c\	-bil	4e\	.	1cc\	tro-	.	.
.	.	.	.	4d\	non	4f#X\	non	.	.	.	.
=79-	=79-	=79-	=79-	=79-	=79-	=79-	=79-	=79-	=79-	=79-	=79-
1G	-vo	1r	.	2e\	tro-	2g\	tro-	.	.	1ryy	.
.	.	.	.	2d\	-vo	2g\	-vo	2b/	-vo	.	.
=80-	=80-	=80-	=80-	=80-	=80-	=80-	=80-	=80-	=80-	=80-	=80-
4E/	Qan-	1r	.	2c/	Qan-	4g\	Qan-	4ee\	Qan-	1ryy	.
2F/	-to	.	.	.	.	2a\	-to	2cc\	-to	.	.
.	.	.	.	4f\	-to	.	.	.	.	.	.
4G\	mi	.	.	4d\	mi	4g\	mi	4b/	mi	.	.
=81-	=81-	=81-	=81-	=81-	=81-	=81-	=81-	=81-	=81-	=81-	=81-
2D/	dai	4r	.	2d\	dai	2f#X\	dai	2a/	dai	1ryy	.
.	.	4d\	che	.	.	.	.	.	.	.	.
4d\	che	2f#X\	ſta-	2r	.	4r	.	2a/	che	.	.
2d\	ſta-	.	.	.	.	4a\	che	.	.	.	.
=82-	=82-	=82-	=82-	=82-	=82-	=82-	=82-	=82-	=82-	=82-	=82-
.	.	4fny\	te	1r	.	4.b\	ſta-	4dd\	ſta-	1ryy	.
4e\	te	4g\	o ver-	.	.	.	.	4g/	te	.	.
.	.	.	.	.	.	8b\	-te	.	.	.	.
4c\	o ver-	4e\	-no	.	.	4cc\	o	4a/	o	.	.
!	!	!	!	!	!	!LO:SIC:v:t=custos a	!	!	!	!	!
4B\	-no	2g\	ſi-	.	.	4g\	ver-	4b/	ver-	.	.
!	!	!	!	!	!	!LO:LB:g=original	!	!	!	!	!
=83-	=83-	=83-	=83-	=83-	=83-	=83-	=83-	=83-	=83-	=83-	=83-
1A	ſi-	.	.	1r	.	1a	-no	1cc	-no	1ryy	.
.	.	8f#X\	.	.	.	.	.	.	.	.	.
!	!	!LO:SIC:v:t=custos f#	!	!	!	!	!	!	!	!	!
.	.	8e\	.	.	.	.	.	.	.	.	.
!	!	!LO:LB:g=original	!	!	!	!	!	!	!	!	!
.	.	2f#X\	.	.	.	.	.	.	.	.	.
=84-	=84-	=84-	=84-	=84-	=84-	=84-	=84-	=84-	=84-	=84-	=84-
1G	-a	1g	-a	2r	.	1d	ſia	1b	ſia	1ryy	.
.	.	.	.	4g\	-Pri-	.	.	.	.	.	.
.	.	.	.	4g\	-ma-	.	.	.	.	.	.
=85-	=85-	=85-	=85-	=85-	=85-	=85-	=85-	=85-	=85-	=85-	=85-
2C/	Pri-	1r	.	4g\	-ve-	1r	.	4ee\	-Pri-	4gg\	Pri-
.	.	.	.	8e\	-ra	.	.	4ee\	-ma-	4gg\	-ma-
.	.	.	.	8f\	per	.	.	.	.	.	.
2C/	-ma-	.	.	2g\	me	.	.	4ee\	-ve-	4gg\	-ve-
.	.	.	.	.	.	.	.	8cc\	-ra	8ee\	-ra
!	!	!	!	!	!	!	!	!LO:SIC:v:t=custos ee	!	!	!
.	.	.	.	.	.	.	.	8dd\	per	8ff\	per
!	!	!	!	!	!	!	!	!LO:LB:g=original	!	!	!
=86-	=86-	=86-	=86-	=86-	=86-	=86-	=86-	=86-	=86-	=86-	=86-
2C/	-ve-	4e\	-Pri-	1r	.	4g\	-Pri-	1ee	me	1gg	me
.	.	4e\	-ma-	.	.	4g\	-ma-	.	.	.	.
!LO:SIC:v:t=custos c	!	!	!	!	!	!	!	!	!	!	!
2C/	-ra	4e\	-ve-	.	.	4g\	-ve-	.	.	.	.
!LO:LB:g=original	!	!	!	!	!	!	!	!	!	!	!
.	.	8c\	-ra	.	.	8e\	-ra	.	.	.	.
.	.	8d\	per	.	.	8fny\	per	.	.	.	.
=87-	=87-	=87-	=87-	=87-	=87-	=87-	=87-	=87-	=87-	=87-	=87-
*	*	*	*	*	*ij	*	*	*	*	*	*
4c\	-Pri-	2e\	me	4e\	-Pri-	2g\	me	2r	.	2r	.
!	!	!	!	!LO:SIC:v:t=custos e	!	!	!	!	!	!	!
4c\	-ma-	.	.	4e\	-ma-	.	.	.	.	.	.
!	!	!	!	!LO:LB:g=original	!	!	!	!	!	!	!
*	*	*	*	*	*	*	*	*	*	*	*ij
4c\	-ve-	2r	.	4e\	-ve-	2r	.	4cc\	-Pri-	4ee\	Pri-
8A\	-ra	.	.	8c\	-ra	.	.	4cc\	-ma-	4ee\	-ma-
8B\	per	.	.	8d\	per	.	.	.	.	.	.
=88-	=88-	=88-	=88-	=88-	=88-	=88-	=88-	=88-	=88-	=88-	=88-
*	*	*	*	*	*	*	*ij	*	*	*	*
2c\	-me	4g\	-Pri-	2e\	-me	4e/	Pri-	4cc\	-ve-	4ee\	-ve-
*	*	*	*	*	*Xij	*	*	*	*	*	*
.	.	4g\	-ma-	.	.	4e/	-ma-	8ee\	-ra	8ccny\	-ra
.	.	.	.	.	.	.	.	8dd\	per	8dd\	per
2C/	ſa-	4g\	-ve-	4g\	-Pri-	4e/	-ve-	2cc\	me	2ee\	me
*	*	*	*	*	*	*	*	*	*	*	*Xij
.	.	8e\	-ra	4g\	-ma-	8c/	-ra	.	.	.	.
.	.	8fny\	per	.	.	8d/	per	.	.	.	.
=89-	=89-	=89-	=89-	=89-	=89-	=89-	=89-	=89-	=89-	=89-	=89-
*	*	*	*	*	*	*	*	*	*ij	*	*
1.C	-reb-	1.g	me	4g\	-ve-	2e/	me	4cc\	Pri-	4ee\	Pri-
*	*	*	*	*	*	*	*Xij	*	*	*	*
!	!	!	!	!	!	!	!	!	!	!LO:SIC:v:t=custos gg	!
.	.	.	.	8e\	-ra	.	.	4ee\	-ma-	4gg\	-ma-
!	!	!	!	!	!	!	!	!	!	!LO:LB:g=original	!
.	.	.	.	8f\	per	.	.	.	.	.	.
.	.	.	.	2g\	me	2cc\	ſa-	4ee\	-ve-	4gg\	-ve-
.	.	.	.	.	.	.	.	8cc\	-ra	8ee\	-ra
.	.	.	.	.	.	.	.	8dd\	per	8ff\	per-
=90-	=90-	=90-	=90-	=90-	=90-	=90-	=90-	=90-	=90-	=90-	=90-
.	.	.	.	2e\	ſa-	2cc\	-reb-	2ee\	me	4gg\	-me
*	*	*	*	*	*	*	*	*	*Xij	*	*
.	.	.	.	.	.	.	.	.	.	4g/	ſa-
2D/	be	2f\	ſa-	2d\	-reb-	2a\	-be	4r	.	2dd\	-reb-
.	.	.	.	.	.	.	.	4dd\	ſa-	.	.
=91-	=91-	=91-	=91-	=91-	=91-	=91-	=91-	=91-	=91-	=91-	=91-
2.E/	ſem-	2e\	-reb-	2G/	-be	0g	ſem-	2gg\	-reb-	2b/	-be
.	.	2e\	-be	2.g\	ſem-	.	.	2gg\	be	2.cc\	ſem-
4F/	.	.	.	.	.	.	.	.	.	.	.
=92-	=92-	=92-	=92-	=92-	=92-	=92-	=92-	=92-	=92-	=92-	=92-
1G	.	1d	ſem-	.	.	.	.	1gg	ſem-	.	.
.	.	.	.	8f\	.	.	.	.	.	8b/	.
.	.	.	.	8e\	.	.	.	.	.	8a/	.
.	.	.	.	2d\	.	.	.	.	.	2b/	.
=93-	=93-	=93-	=93-	=93-	=93-	=93-	=93-	=93-	=93-	=93-	=93-
1C	-pre	1c	pre	1e	-pre	2g\	pre	1ee	pre	1cc	pre
.	.	.	.	.	.	4g\	Pri-	.	.	.	.
.	.	.	.	.	.	4g\	-ma-	.	.	.	.
=94-	=94-	=94-	=94-	=94-	=94-	=94-	=94-	=94-	=94-	=94-	=94-
!	!	!	!	!	!	!LO:SIC:v:t=custos e	!	!	!	!	!
4c\	Pri-	1r	.	4e\	Pri-	4g\	-ve-	2r	.	2r	.
!	!	!	!	!	!	!LO:LB:g=original	!	!	!	!	!
4c\	-ma-	.	.	4e\	-ma-	8e\	-ra	.	.	.	.
.	.	.	.	.	.	8f\	per	.	.	.	.
4c\	-ve-	.	.	4e\	-ve-	4g\	me	4cc\	Pri-	4ee\	Pri-
8A\	-ra	.	.	8c\	-ra	4r	.	4cc\	-ma-	4ee\	-ma-
!	!	!	!	!LO:SIC:v:t=custos e	!	!	!	!	!	!	!
8B\	per	.	.	8d\	per	.	.	.	.	.	.
!	!	!	!	!LO:LB:g=original	!	!	!	!	!	!	!
=95-	=95-	=95-	=95-	=95-	=95-	=95-	=95-	=95-	=95-	=95-	=95-
!	!	!	!	!	!	!	!	!LO:SIC:v:t=custos ee	!	!	!
*	*	*	*	*	*	*	*ij	*	*	*	*
2c\	me	4g\	Pri-	2e\	me	4e/	Pri-	4cc\	-ve-	4ee\	-ve-
!	!	!	!	!	!	!	!	!LO:LB:g=original	!	!	!
!	!	!LO:SIC:v:t=custos g	!	!	!	!	!	!	!	!	!
.	.	4g\	-ma-	.	.	4e/	-ma-	8ee\	-ra	8cc\	-ra
!	!	!LO:LB:g=original	!	!	!	!	!	!	!	!	!
.	.	.	.	.	.	.	.	8dd\	per	8dd\	per
!LO:SIC:v:t=custos C	!	!	!	!	!	!	!	!	!	!	!
2C/	ſa-	4g\	-ve-	4g\	Pri-	4e/	-ve-	2cc\	me	2ee\	me
!LO:LB:g=original	!	!	!	!	!	!	!	!	!	!	!
.	.	8e\	-ra	4g\	-ma-	8c/	-ra	.	.	.	.
.	.	8f\	per	.	.	8d/	per	.	.	.	.
=96-	=96-	=96-	=96-	=96-	=96-	=96-	=96-	=96-	=96-	=96-	=96-
*	*	*	*	*	*	*	*	*	*ij	*	*ij
1.C	-rab-	1.g	me	4g\	-ve-	2e/	me	4cc\	Pri-	4ee\	Pri-
*	*	*	*	*	*	*	*Xij	*	*	*	*
.	.	.	.	8e\	-ra	.	.	4ee\	-ma-	4gg\	-ma-
.	.	.	.	8f\	per	.	.	.	.	.	.
!	!	!	!	!	!	!	!	!	!	!LO:SIC:v:t=custos ee	!
.	.	.	.	2g\	-me-	2cc\	ſa-	4ee\	-ve-	4gg\	-ve-
!	!	!	!	!	!	!	!	!	!	!LO:LB:g=original	!
.	.	.	.	.	.	.	.	8cc\	-ra	8ee\	-ra
.	.	.	.	.	.	.	.	8dd\	per	8ff\	per
=97-	=97-	=97-	=97-	=97-	=97-	=97-	=97-	=97-	=97-	=97-	=97-
.	.	.	.	2e\	ſa-	2cc\	-reb-	2ee\	me	4gg\	me
*	*	*	*	*	*	*	*	*	*Xij	*	*Xij
.	.	.	.	.	.	.	.	.	.	4g/	ſa-
2D/	-be	2f\	ſa-	2d\	-reb-	2a\	be	4r	.	2dd\	-reb-
.	.	.	.	.	.	.	.	4dd\	ſa-	.	.
=98-	=98-	=98-	=98-	=98-	=98-	=98-	=98-	=98-	=98-	=98-	=98-
2.E/	ſem-	2e\	-reb-	2G/	be	0g	ſem-	2gg\	reb-	2b/	be
.	.	2e\	be	2.g\	ſem-	.	.	2gg\	-be-	2.cc\	ſem-
4F/	.	.	.	.	.	.	.	.	.	.	.
=99-	=99-	=99-	=99-	=99-	=99-	=99-	=99-	=99-	=99-	=99-	=99-
1G	.	1d	ſem-	.	.	.	.	1gg	ſem-	.	.
.	.	.	.	8f\	.	.	.	.	.	8b/	.
.	.	.	.	8e\	.	.	.	.	.	8a/	.
.	.	.	.	2d\	.	.	.	.	.	2b/	.
=100-	=100-	=100-	=100-	=100-	=100-	=100-	=100-	=100-	=100-	=100-	=100-
00C	pre.	00c	pre.	00e	pre.	00g	pre.	00ee	pre.	00cc	pre.
=101-	=101-	=101-	=101-	=101-	=101-	=101-	=101-	=101-	=101-	=101-	=101-
.	.	.	.	.	.	.	.	.	.	.	.
=102-	=102-	=102-	=102-	=102-	=102-	=102-	=102-	=102-	=102-	=102-	=102-
.	.	.	.	.	.	.	.	.	.	.	.
=103-	=103-	=103-	=103-	=103-	=103-	=103-	=103-	=103-	=103-	=103-	=103-
.	.	.	.	.	.	.	.	.	.	.	.
=-	=-	=-	=-	=-	=-	=-	=-	=-	=-	=-	=-
*-	*-	*-	*-	*-	*-	*-	*-	*-	*-	*-	*-
!!!system-decoration: [(s1,s2,s3,s4,s5,s6)]
!!!ENC: Marta Opryszak
!!!END: 2022-06-13
!!!ENC: Julita Ruszuk
!!!END: 2022-07-22
